packages/tokens/icons/moneyCircleArrow/size24Px.svg

<svg viewBox="0 0 24 24" fill="none" xmlns="http://www.w3.org/2000/svg" width="1em" height="1em"><path d="M14.5 10.1373V9.99957V9.99957C14.5 9.17111 13.8284 8.49952 12.9999 8.49953L10.7501 8.49955C9.78356 8.49956 9 9.28312 9 10.2497V10.2497C9 11.2163 9.78353 11.9998 10.7501 11.9998L13.0002 11.9999C14.1048 12 15.0002 12.8954 15.0001 14V14C15 15.1046 14.1046 15.9999 13 15.9999L10.9996 15.9997C9.89525 15.9996 9.0001 15.1043 9.00022 14V14V13.7245" stroke="currentColor" stroke-linecap="round"/><path d="M12 7.5V17.5" stroke="currentColor" stroke-linecap="round"/><path d="M5.04569 6.80785C5.21252 6.5878 5.16937 6.27417 4.94932 6.10734C4.72926 5.94051 4.41563 5.98366 4.24881 6.20372L5.04569 6.80785ZM17.6645 19.939C17.8803 19.7667 17.9155 19.4521 17.7431 19.2363C17.5707 19.0206 17.2561 18.9854 17.0404 19.1578L17.6645 19.939ZM2.325 6.24484C2.06632 6.34149 1.93498 6.62954 2.03163 6.88822C2.12828 7.1469 2.41633 7.27824 2.675 7.18159L2.325 6.24484ZM4.75601 5.87029L5.22727 5.7032C5.18247 5.57684 5.0888 5.47377 4.96729 5.41712C4.84577 5.36047 4.7066 5.35499 4.58101 5.40192L4.75601 5.87029ZM5.10588 8.3533C5.19816 8.61357 5.48396 8.74975 5.74422 8.65747C6.00449 8.56519 6.14067 8.2794 6.04839 8.01913L5.10588 8.3533ZM18.9543 17.1921C18.7875 17.4122 18.8306 17.7258 19.0507 17.8927C19.2707 18.0595 19.5844 18.0163 19.7512 17.7963L18.9543 17.1921ZM6.33545 4.06096C6.11971 4.23333 6.08454 4.54795 6.2569 4.76369C6.42927 4.97944 6.74389 5.01461 6.95963 4.84224L6.33545 4.06096ZM21.675 17.7552C21.9337 17.6585 22.065 17.3705 21.9684 17.1118C21.8717 16.8531 21.5837 16.7218 21.325 16.8184L21.675 17.7552ZM19.244 18.1297L18.7727 18.2968C18.8175 18.4232 18.9112 18.5262 19.0327 18.5829C19.1542 18.6395 19.2934 18.645 19.419 18.5981L19.244 18.1297ZM18.8941 15.6467C18.8018 15.3864 18.516 15.2502 18.2558 15.3425C17.9955 15.4348 17.8593 15.7206 17.9516 15.9809L18.8941 15.6467ZM5.75614 18.4288C2.66688 15.2575 2.42824 10.2604 5.04569 6.80785L4.24881 6.20372C1.33767 10.0437 1.59952 15.5949 5.03983 19.1266L5.75614 18.4288ZM17.0404 19.1578C13.6878 21.8362 8.84013 21.5947 5.75614 18.4288L5.03983 19.1266C8.48541 22.6637 13.9132 22.936 17.6645 19.939L17.0404 19.1578ZM2.675 7.18159L4.93102 6.33866L4.58101 5.40192L2.325 6.24484L2.675 7.18159ZM4.28476 6.03738L5.10588 8.3533L6.04839 8.01913L5.22727 5.7032L4.28476 6.03738ZM18.2439 5.57117C21.3331 8.74246 21.5718 13.7396 18.9543 17.1921L19.7512 17.7963C22.6623 13.9563 22.4005 8.40506 18.9602 4.87339L18.2439 5.57117ZM6.95963 4.84224C10.3122 2.16383 15.1599 2.40528 18.2439 5.57117L18.9602 4.87339C15.5146 1.33631 10.0868 1.06396 6.33545 4.06096L6.95963 4.84224ZM21.325 16.8184L19.069 17.6613L19.419 18.5981L21.675 17.7552L21.325 16.8184ZM19.7152 17.9626L18.8941 15.6467L17.9516 15.9809L18.7727 18.2968L19.7152 17.9626Z" fill="currentColor"/></svg>

<svg xmlns="http://www.w3.org/2000/svg" fill="none" viewBox="0 0 24 24" width="1em" height="1em"><path stroke="currentColor" stroke-linecap="round" d="M14.5 10.137V10v0A1.5 1.5 0 0 0 13 8.5h-2.25A1.75 1.75 0 0 0 9 10.25v0c0 .966.784 1.75 1.75 1.75H13a2 2 0 0 1 2 2v0a2 2 0 0 1-2 2h-2a2 2 0 0 1-2-2v0-.275M12 7.5v10"/><path fill="currentColor" d="M5.046 6.808a.5.5 0 1 0-.797-.604l.797.604Zm12.618 13.131a.5.5 0 1 0-.624-.781l.625.781ZM2.325 6.245a.5.5 0 0 0 .35.937l-.35-.937Zm2.431-.375.471-.167a.5.5 0 0 0-.646-.301l.175.468Zm.35 2.483a.5.5 0 1 0 .942-.334l-.942.334Zm13.848 8.84a.5.5 0 0 0 .797.603l-.797-.604ZM6.335 4.06a.5.5 0 0 0 .625.781l-.625-.781Zm15.34 13.694a.5.5 0 0 0-.35-.937l.35.937Zm-2.431.375-.471.167a.5.5 0 0 0 .646.301l-.175-.468Zm-.35-2.483a.5.5 0 1 0-.942.334l.942-.334ZM5.756 18.429c-3.09-3.171-3.328-8.169-.71-11.621l-.797-.604c-2.911 3.84-2.65 9.39.79 12.923l.717-.698Zm11.284.729a8.382 8.382 0 0 1-11.284-.73l-.716.699a9.383 9.383 0 0 0 12.625.812l-.625-.781ZM2.675 7.182l2.256-.843-.35-.937-2.256.843.35.937Zm1.61-1.145.82 2.316.943-.334-.82-2.316-.943.334Zm13.959-.466c3.09 3.171 3.328 8.169.71 11.621l.797.604c2.911-3.84 2.65-9.39-.79-12.923l-.717.698ZM6.96 4.842a8.382 8.382 0 0 1 11.284.73l.716-.699a9.383 9.383 0 0 0-12.625-.812l.625.781Zm14.365 11.976-2.256.843.35.937 2.256-.843-.35-.937Zm-1.61 1.145-.82-2.316-.943.334.82 2.316.943-.334Z"/></svg>
